svgs/tempo_music.svg

<?xml version="1.0" encoding="UTF-8" standalone="no"?>
<svg
   id="Livello_2"
   data-name="Livello 2"
   viewBox="0 0 192 192"
   version="1.1"
   sodipodi:docname="tempo_music.svg"
   width="192"
   height="192"
   inkscape:version="1.3.2 (091e20ef0f, 2023-11-25)"
   xmlns:inkscape="http://www.inkscape.org/namespaces/inkscape"
   xmlns:sodipodi="http://sodipodi.sourceforge.net/DTD/sodipodi-0.dtd"
   xmlns="http://www.w3.org/2000/svg"
   xmlns:svg="http://www.w3.org/2000/svg">
  <sodipodi:namedview
     id="namedview16"
     pagecolor="#ffffff"
     bordercolor="#000000"
     borderopacity="0.25"
     inkscape:showpageshadow="2"
     inkscape:pageopacity="0.0"
     inkscape:pagecheckerboard="0"
     inkscape:deskcolor="#d1d1d1"
     inkscape:zoom="3.3219122"
     inkscape:cx="92.266135"
     inkscape:cy="104.00636"
     inkscape:window-width="1920"
     inkscape:window-height="1131"
     inkscape:window-x="0"
     inkscape:window-y="0"
     inkscape:window-maximized="1"
     inkscape:current-layer="Livello_2" />
  <defs
     id="defs1">
    <style
       id="style1">
      .cls-1 {
        fill: #f24b6a;
      }
    </style>
  </defs>
  <g
     id="path16"
     transform="matrix(1.038961,0,0,1.038961,-1.6623367,-3.7402588)"
     style="stroke-width:1;stroke-dasharray:none" />
  <g
     id="path17"
     transform="matrix(1.038961,0,0,1.038961,-1.6623367,-3.7402588)"
     style="stroke-width:1;stroke-dasharray:none" />
  <g
     id="path18"
     transform="matrix(1.038961,0,0,1.038961,-1.6623367,-3.7402588)"
     style="stroke-width:1;stroke-dasharray:none" />
  <g
     id="path19"
     transform="matrix(1.038961,0,0,1.038961,-1.6623367,-3.7402588)"
     style="stroke-width:1;stroke-dasharray:none" />
  <g
     id="path20"
     transform="matrix(1.038961,0,0,1.038961,-1.6623367,-3.7402588)"
     style="stroke-width:1;stroke-dasharray:none" />
  <g
     id="path21"
     transform="matrix(1.038961,0,0,1.038961,-1.6623367,-3.7402588)"
     style="stroke-width:1;stroke-dasharray:none" />
  <g
     id="path22"
     transform="matrix(1.038961,0,0,1.038961,-1.6623367,-3.7402588)"
     style="stroke-width:1;stroke-dasharray:none" />
  <g
     id="path23"
     transform="matrix(1.038961,0,0,1.038961,-1.6623367,-3.7402588)"
     style="stroke-width:1;stroke-dasharray:none" />
  <g
     id="path24"
     transform="matrix(1.038961,0,0,1.038961,-1.6623367,-3.7402588)"
     style="stroke-width:1;stroke-dasharray:none" />
  <g
     id="path25"
     transform="matrix(1.038961,0,0,1.038961,-1.6623367,-3.7402588)"
     style="stroke-width:1;stroke-dasharray:none" />
  <path
     id="path1"
     style="color:#000000;fill:none;stroke:#000000;stroke-width:8.00006;stroke-linecap:round;stroke-linejoin:round;stroke-dasharray:none;stroke-opacity:1"
     d="m 20.029826,43.894549 -0.0298,35.173134 M 171.99997,44.115431 171.87432,79.290601 M 80.82939,31.94653 80.749416,143.19611 M 65.600176,43.903447 65.54159,79.077367 M 50.392152,32.087404 50.383553,90.972221 M 35.233524,20.08017 l -0.05389,83.58502 m 121.498776,-83.665162 0.0466,83.584982 m -15.24729,-71.236491 0.0507,58.885393 m -15.21623,-47.113834 0.0161,35.172849 M 111.16243,32.28144 111.15013,143.53039 M 95.999993,20.242931 95.979226,171.99997" />
</svg>

<svg xmlns="http://www.w3.org/2000/svg" width="192" height="192" data-name="Livello 2"><path d="M20.03 43.895 20 79.068m152-34.953-.126 35.176M80.83 31.947l-.08 111.25M65.6 43.902l-.058 35.174m-15.15-46.99-.008 58.885M35.234 20.08l-.054 83.585M156.678 20l.047 83.585m-15.247-71.236.05 58.885M126.312 44.12l.016 35.173M111.162 32.28l-.012 111.25M96 20.242 95.98 172" style="color:#000;fill:none;stroke:#000;stroke-width:8.00006;stroke-linecap:round;stroke-linejoin:round;stroke-dasharray:none;stroke-opacity:1"/></svg>
